src/categories-icons-sprite/categories/svg-cat-accessories-leather.svg

<svg width="33" height="26" viewBox="0 0 33 26" fill="none" xmlns="http://www.w3.org/2000/svg">
<path class="p-53433F" d="M26.1276 0V7.65059H2.86897C1.28141 7.65059 0 4.4564 0 2.86897C0 1.31973 1.26228 0 2.86897 0H26.1276Z" fill="#58ADE5"/>
<path class="p-3E322E" d="M26.1273 0H16.3848V7.65059H26.1273V0Z" fill="#4D98CB"/>
<path class="p-68544F" d="M30.7299 14.4046V20.1426L32.6425 22.0552V26H4.78162C2.14216 26 0 23.8579 0 21.2184V1.97241C0 3.55985 1.28141 4.84138 2.86897 4.84138H32.6425V12.492L30.7299 14.4046Z" fill="#5FBEFF"/>
<path class="p-53433F" d="M30.7296 14.4045V20.1425L32.6423 22.0551V26H16.3848V4.84131H32.6423V12.4919L30.7296 14.4045Z" fill="#65B3E7"/>
<path class="p-3E322E" d="M32.6429 22.0552H25.9486C23.3078 22.0552 21.167 19.9144 21.167 17.2736C21.167 14.6328 23.3078 12.4919 25.9486 12.4919H32.6429V22.0552Z" fill="#4D98CB"/>
<path class="p-FF9F00" d="M27.8013 16.3171H25.8887V18.2298H27.8013V16.3171Z" fill="#AFD9F6"/>
</svg>

<svg width="33" height="26" fill="none" xmlns="http://www.w3.org/2000/svg"><path class="p-53433F" d="M26.128 0v7.65H2.869C1.281 7.65 0 4.457 0 2.87A2.877 2.877 0 012.869 0h23.259z" fill="#58ADE5"/><path class="p-3E322E" d="M26.127 0h-9.742v7.65h9.742V0z" fill="#4D98CB"/><path class="p-68544F" d="M30.73 14.405v5.738l1.912 1.912V26H4.782A4.783 4.783 0 010 21.218V1.972a2.865 2.865 0 002.869 2.87h29.773v7.65l-1.912 1.913z" fill="#5FBEFF"/><path class="p-53433F" d="M30.73 14.405v5.737l1.912 1.913V26H16.385V4.841h16.257v7.65l-1.912 1.914z" fill="#65B3E7"/><path class="p-3E322E" d="M32.643 22.055h-6.694a4.782 4.782 0 010-9.563h6.694v9.563z" fill="#4D98CB"/><path class="p-FF9F00" d="M27.801 16.317H25.89v1.913H27.8v-1.913z" fill="#AFD9F6"/></svg>
